img/logo.svg

<svg height="92" viewBox="0 0 186 92" width="186" xmlns="http://www.w3.org/2000/svg"><path d="m112.75.654c-.611 0-1.87 1.77-1.87 1.77-.114-.062-.22-.089-.315-.089-.898 0-.975 2.485-.975 2.485-.646 1.198-3.779 4.146-3.779 4.146-5.031 5.325-9.916 5.785-9.916 5.785-.607-.019.02-.608.02-.608 1.29-2.395.146-4.865.146-4.865-.691-1.239-1.705-1.612-2.668-1.612-1.447 0-2.787.836-2.787.836-1.861 1.161-.185 6.082-.185 6.082-.379.176-.754.237-1.092.237-.765 0-1.341-.311-1.341-.311l-5.363-3.816c-4.772-3.189-7.112-6.304-7.112-6.304-.534-2.452-1.124-3.078-1.124-3.078-.123-.131-.277-.184-.441-.184-.619 0-1.401.736-1.401.736-.627.59-.074 2.434-.074 2.434.571 1.234 3.501 4.976 3.501 4.976 3.574 2.544 10.061 9.438 10.061 9.438 1.77 1.881 1.361 15.261 1.361 15.261l-1.047 16.115c-36.558 1.752-68.237 17.836-86.21 41.26 21.801-19.686 61.208-31.486 98.776-31.486 37.566 0 65.148 11.801 86.949 31.486-18.266-23.806-50.688-40.029-88-41.334l.164-5.369c.057-1.824.021-20.696.021-20.696.111-3.65.775-5.455.775-5.455 3.723-2.322 11.279-10.614 11.279-10.614 3.152-3.558 3.228-5.99 3.228-5.99.036-1.217-.571-1.235-.571-1.235-.003-.001-.006-.001-.01-.001m-22.707 49.306.815-9.795c.055-1.824 1.291-2.395 1.291-2.395.128-.059.25-.086.363-.086.977 0 1.405 1.966 1.405 1.966.401 1.345.345 7.209.283 10.284-.4-.002-.8-.008-1.2-.008-.989 0-1.974.013-2.957.034" fill="#fff"/></svg>

<svg xmlns="http://www.w3.org/2000/svg" width="186" height="92" viewBox="0 0 186 92">
  <path fill="#FFF" d="M112.75,0.654 C112.139,0.654 110.88,2.424 110.88,2.424 C110.766,2.362 110.66,2.335 110.565,2.335 C109.667,2.335 109.59,4.82 109.59,4.82 C108.944,6.018 105.811,8.966 105.811,8.966 C100.78,14.291 95.895,14.751 95.895,14.751 C95.288,14.732 95.915,14.143 95.915,14.143 C97.205,11.748 96.061,9.278 96.061,9.278 C95.37,8.039 94.356,7.666 93.393,7.666 C91.946,7.666 90.606,8.502 90.606,8.502 C88.745,9.663 90.421,14.584 90.421,14.584 C90.042,14.76 89.667,14.821 89.329,14.821 C88.564,14.821 87.988,14.51 87.988,14.51 L82.625,10.694 C77.853,7.505 75.513,4.39 75.513,4.39 C74.979,1.938 74.389,1.312 74.389,1.312 C74.266,1.181 74.112,1.128 73.948,1.128 C73.329,1.128 72.547,1.864 72.547,1.864 C71.92,2.454 72.473,4.298 72.473,4.298 C73.044,5.532 75.974,9.274 75.974,9.274 C79.548,11.818 86.035,18.712 86.035,18.712 C87.805,20.593 87.396,33.973 87.396,33.973 L86.349,50.088 C49.791,51.84 18.112,67.924 0.139,91.348 C21.94,71.662 61.347,59.862 98.915,59.862 C136.481,59.862 164.063,71.663 185.864,91.348 C167.598,67.542 135.176,51.319 97.864,50.014 L98.028,44.645 C98.085,42.821 98.049,23.949 98.049,23.949 C98.16,20.299 98.824,18.494 98.824,18.494 C102.547,16.172 110.103,7.88 110.103,7.88 C113.255,4.322 113.331,1.89 113.331,1.89 C113.367,0.673 112.76,0.655 112.76,0.655 C112.757,0.654 112.754,0.654 112.75,0.654 M90.043,49.96 L90.858,40.165 C90.913,38.341 92.149,37.77 92.149,37.77 C92.277,37.711 92.399,37.684 92.512,37.684 C93.489,37.684 93.917,39.65 93.917,39.65 C94.318,40.995 94.262,46.859 94.2,49.934 C93.8,49.932 93.4,49.926 93,49.926 C92.011,49.926 91.026,49.939 90.043,49.96"/>
</svg>
